MoveL Offs(pInicial, 343.52, 263.13, 0),v1000,fine,tool0;
MoveL Offs(pInicial, 346.32, 260.33, 0),v1000,fine,tool0;
MoveL Offs(pInicial, 347.25, 258.00, 0),v1000,fine,tool0;
MoveL Offs(pInicial, 347.48, 254.63, 0),v1000,fine,tool0;
MoveL Offs(pInicial, 346.08, 250.32, 0),v1000,fine,tool0;
MoveL Offs(pInicial, 344.22, 248.69, 0),v1000,fine,tool0;
MoveL Offs(pInicial, 340.84, 247.64, 0),v1000,fine,tool0;
MoveL Offs(pInicial, 335.94, 247.76, 0),v1000,fine,tool0;
MoveL Offs(pInicial, 332.44, 250.32, 0),v1000,fine,tool0;
MoveL Offs(pInicial, 331.51, 254.39, 0),v1000,fine,tool0;
MoveL Offs(pInicial, 332.56, 257.54, 0),v1000,fine,tool0;
MoveL Offs(pInicial, 335.36, 261.85, 0),v1000,fine,tool0;
MoveL Offs(pInicial, 339.21, 263.48, 0),v1000,fine,tool0;
MoveL Offs(pInicial, 343.52, 263.13, 0),v1000,fine,tool0;
MoveL Offs(pInicial, 346.32, 260.33, 0),v1000,fine,tool0;
MoveL Offs(pInicial, 347.25, 258.00, 0),v1000,fine,tool0;
MoveL Offs(pInicial, 347.48, 254.63, 0),v1000,fine,tool0;
MoveL Offs(pInicial, 346.08, 250.32, 0),v1000,fine,tool0;
MoveL Offs(pInicial, 344.22, 248.69, 0),v1000,fine,tool0;
MoveL Offs(pInicial, 340.84, 247.64, 0),v1000,fine,tool0;
MoveL Offs(pInicial, 335.94, 247.76, 0),v1000,fine,tool0;
MoveL Offs(pInicial, 343.64, 263.24, 0),v1000,fine,tool0;
MoveL Offs(pInicial, 343.52, 263.13, 0),v1000,fine,tool0;
MoveL Offs(pInicial, 346.32, 260.33, 0),v1000,fine,tool0;
MoveL Offs(pInicial, 347.25, 258.00, 0),v1000,fine,tool0;
MoveL Offs(pInicial, 347.48, 254.63, 0),v1000,fine,tool0;
MoveL Offs(pInicial, 346.08, 250.32, 0),v1000,fine,tool0;
MoveL Offs(pInicial, 344.22, 248.69, 0),v1000,fine,tool0;
MoveL Offs(pInicial, 340.84, 247.64, 0),v1000,fine,tool0;
MoveL Offs(pInicial, 335.94, 247.76, 0),v1000,fine,tool0;
